X: 110
T: My former wife
C: anon.
O: Ireland
B: Francis O'Neill: "The Dance Music of Ireland" (1907) no. 110
R: Double jig
Z: Transcribed by Frank Nordberg - http://www.musicaviva.com
F: http://www.musicaviva.com/abc/tunes/ireland/oneill-1001/oneill-1001-011
0.abc
m: Mn = (3n/o/n/
M: 6/8
L: 1/8
K: Am
E|EAA ABc|BAG c2A|BGE EFE|GED DED|EAA ABc|BAB GBd|ede gdB|(MBA)A A2:|
|:d|e^fg abc'|bag a2g|ede g2a|(g<b)a ged|e^fg abc'|bag a2g|ede gdB|(MBA)A
 A2:|
W:
W:
W: From Musica Viva - http://www.musicaviva.com
W: the Internet center for free sheet music downloads.


